epam-assets/icon-sources/18/communication-skype.svg

<svg width="18" height="18" viewBox="0 0 18 18" fill="none" xmlns="http://www.w3.org/2000/svg">
<path fill-rule="evenodd" clip-rule="evenodd" d="M13.6667 4.33333C15.2767 5.92 15.8833 8.13667 15.5022 10.2056C15.8211 10.7656 16 11.4189 16 12.1111C16 14.2589 14.2589 16 12.1111 16C11.4189 16 10.7656 15.8211 10.2056 15.5022C8.13667 15.8833 5.92 15.2767 4.33333 13.6667C2.72333 12.08 2.11667 9.86333 2.49778 7.79444C2.17889 7.23444 2 6.58111 2 5.88889C2 3.74111 3.74111 2 5.88889 2C6.58111 2 7.23444 2.17889 7.79444 2.49778C9.86333 2.11667 12.08 2.72333 13.6667 4.33333ZM9.03111 13.0133C11.2633 13.0133 12.3756 11.94 12.3756 10.4933C12.3756 9.56778 11.94 8.58 10.2522 8.19889L8.70444 7.85667C8.11333 7.72444 7.44444 7.54556 7.44444 6.99333C7.44444 6.43333 7.91111 6.04444 8.76667 6.04444C10.5011 6.04444 10.3378 7.23444 11.2011 7.23444C11.6522 7.23444 12.0411 6.97 12.0411 6.51111C12.0411 5.44556 10.3378 4.64444 8.89111 4.64444C7.32778 4.64444 5.65556 5.31333 5.65556 7.08667C5.65556 7.94222 5.95889 8.85222 7.63889 9.27222L9.73111 9.80111C10.3611 9.95667 10.5167 10.3067 10.5167 10.6333C10.5167 11.1622 9.98778 11.6833 9.03111 11.6833C7.15667 11.6833 7.41333 10.2444 6.41 10.2444C5.95889 10.2444 5.63222 10.5556 5.63222 10.9989C5.63222 11.8622 6.66667 13.0133 9.03111 13.0133Z" fill="#6C6F80"/>
</svg>

<svg xmlns="http://www.w3.org/2000/svg" width="18" height="18" fill="none" viewBox="0 0 18 18">
  <path fill="#6C6F80" fill-rule="evenodd" d="M13.667 4.333a6.554 6.554 0 0 1 1.835 5.873c.32.56.498 1.213.498 1.905a3.889 3.889 0 0 1-5.794 3.391 6.554 6.554 0 0 1-5.873-1.835 6.554 6.554 0 0 1-1.835-5.873 3.889 3.889 0 0 1 5.297-5.297 6.554 6.554 0 0 1 5.872 1.836Zm-4.636 8.68c2.232 0 3.345-1.073 3.345-2.52 0-.925-.436-1.913-2.124-2.294l-1.548-.342c-.59-.133-1.26-.311-1.26-.864 0-.56.467-.949 1.323-.949 1.734 0 1.57 1.19 2.434 1.19.451 0 .84-.264.84-.723 0-1.065-1.703-1.867-3.15-1.867-1.563 0-3.235.67-3.235 2.443 0 .855.303 1.765 1.983 2.185l2.092.53c.63.155.786.505.786.831 0 .53-.53 1.05-1.486 1.05-1.874 0-1.618-1.439-2.621-1.439-.451 0-.778.312-.778.755 0 .863 1.035 2.014 3.4 2.014Z" clip-rule="evenodd"/>
</svg>
